assets/icons/emote/monkey-filled.svg

<?xml version="1.0" encoding="UTF-8" standalone="no"?>
<svg
   viewBox="0 0 24 24"
   width="24"
   height="24"
   version="1.1"
   id="svg8"
   sodipodi:docname="monkey-filled.svg"
   inkscape:version="1.2 (1:1.2.1+202207142221+cd75a1ee6d)"
   xmlns:inkscape="http://www.inkscape.org/namespaces/inkscape"
   xmlns:sodipodi="http://sodipodi.sourceforge.net/DTD/sodipodi-0.dtd"
   xmlns="http://www.w3.org/2000/svg"
   xmlns:svg="http://www.w3.org/2000/svg"
   xmlns:rdf="http://www.w3.org/1999/02/22-rdf-syntax-ns#"
   xmlns:cc="http://creativecommons.org/ns#"
   xmlns:dc="http://purl.org/dc/elements/1.1/">
  <metadata
     id="metadata14">
    <rdf:RDF>
      <cc:Work
         rdf:about="">
        <dc:format>image/svg+xml</dc:format>
        <dc:type
           rdf:resource="http://purl.org/dc/dcmitype/StillImage" />
      </cc:Work>
    </rdf:RDF>
  </metadata>
  <defs
     id="defs12" />
  <sodipodi:namedview
     pagecolor="#ffffff"
     bordercolor="#666666"
     borderopacity="1"
     objecttolerance="10"
     gridtolerance="10"
     guidetolerance="10"
     inkscape:pageopacity="0"
     inkscape:pageshadow="2"
     inkscape:window-width="1920"
     inkscape:window-height="1016"
     id="namedview10"
     showgrid="true"
     inkscape:zoom="32.000001"
     inkscape:cx="10.34375"
     inkscape:cy="11.671874"
     inkscape:window-x="0"
     inkscape:window-y="0"
     inkscape:window-maximized="1"
     inkscape:current-layer="svg8"
     inkscape:pagecheckerboard="0"
     inkscape:showpageshadow="2"
     inkscape:deskcolor="#d1d1d1">
    <inkscape:grid
       type="xygrid"
       id="grid870" />
  </sodipodi:namedview>
  <path
     id="path4"
     style="fill:#808080;fill-opacity:1;stroke-width:1;marker:none"
     d="M 11.804688 2.0390625 C 10.445191 2.852323 10.458866 3.8037443 10.615234 4.3613281 C 10.739174 4.3402301 10.865201 4.3213426 10.990234 4.3066406 C 8.3788421 4.6207763 6.244385 6.2980879 5.4550781 8.5292969 C 5.1168722 8.2893949 4.7572434 8.1328125 4.34375 8.1328125 C 3.0512526 8.1328125 2 9.4878159 2 11.101562 C 2 12.717809 3.0512526 14.03125 4.34375 14.03125 C 4.9274988 14.03125 5.4509383 13.766875 5.8671875 13.328125 C 5.8777125 13.323225 5.8917828 13.321316 5.9023438 13.316406 C 6.0755484 13.618472 6.2743288 13.909192 6.5019531 14.183594 C 4.4882308 14.985306 3.171875 16.202709 3.171875 17.585938 C 3.171875 20.002182 7.1109466 21.960938 11.960938 21.960938 C 16.810927 21.960938 20.75 20.002182 20.75 17.585938 C 20.75 16.172631 19.380369 14.928738 17.291016 14.128906 C 17.900703 13.39376 17.896484 13.230469 17.896484 13.230469 C 17.998097 13.280129 18.112416 13.314159 18.210938 13.367188 C 18.610936 13.769686 19.098752 14.03125 19.65625 14.03125 C 20.948748 14.03125 22 12.71781 22 11.101562 C 22 9.4865664 20.948748 8.1328125 19.65625 8.1328125 C 19.162555 8.1328125 18.720024 8.344461 18.345703 8.6777344 C 17.647384 6.5187399 15.69944 4.8529252 13.269531 4.3847656 C 13.329121 4.3962406 13.388041 4.408931 13.447266 4.421875 C 13.278298 3.5842433 13.325848 2.2749128 15.515625 2.4296875 C 15.176562 2.3057814 14.868235 2.2446411 14.589844 2.2324219 C 12.890847 2.1578499 12.314054 3.8062245 12.183594 4.2558594 C 12.305093 4.2618094 12.425905 4.2712481 12.546875 4.2832031 C 12.326191 4.2632571 12.101409 4.249985 11.875 4.25 C 11.8514 4.2497926 11.828286 4.2499805 11.804688 4.25 C 11.459613 3.9296225 11.132382 3.2604943 11.804688 2.0390625 z M 10.085938 8.328125 C 10.560936 8.328125 10.984375 9.136565 10.984375 10.164062 C 10.984375 11.19281 10.560936 12.039062 10.085938 12.039062 C 9.6109381 12.039062 9.265625 11.19281 9.265625 10.164062 C 9.265625 9.136565 9.6109381 8.328125 10.085938 8.328125 z M 13.835938 8.328125 C 14.310936 8.328125 14.734375 9.136565 14.734375 10.164062 C 14.734375 11.19281 14.310936 12.039062 13.835938 12.039062 C 13.360938 12.039062 13.015625 11.19281 13.015625 10.164062 C 13.015625 9.136565 13.360938 8.328125 13.835938 8.328125 z M 6.9609375 16.111328 C 6.9609375 16.111328 7.3275598 18.128906 11.900391 18.128906 C 16.258589 18.128906 16.960938 16.140625 16.960938 16.140625 C 16.960938 16.140625 16.922353 19.100297 11.900391 19.060547 C 6.7840268 19.020796 6.9609375 16.111329 6.9609375 16.111328 z " />
  <path
     style="fill:#808080;fill-opacity:1;stroke-width:1;marker:none"
     d="m 18.352544,8.7065465 c 0,0 -0.0074,-0.029303 0,0 z"
     id="path399" />
</svg>

<svg width="24" height="24" xmlns="http://www.w3.org/2000/svg"><path style="fill:gray;fill-opacity:1;stroke-width:1;marker:none" d="M11.805 2.04c-1.36.812-1.346 1.764-1.19 2.321.124-.02.25-.04.375-.054-2.611.314-4.746 1.991-5.535 4.222-.338-.24-.698-.396-1.111-.396C3.05 8.133 2 9.488 2 11.102c0 1.616 1.051 2.93 2.344 2.93.583 0 1.107-.265 1.523-.704.01-.005.025-.007.035-.012.174.302.372.593.6.868-2.014.801-3.33 2.019-3.33 3.402 0 2.416 3.939 4.375 8.789 4.375s8.789-1.959 8.789-4.375c0-1.413-1.37-2.657-3.459-3.457.61-.735.605-.899.605-.899.102.05.216.084.315.137.4.403.888.664 1.445.664 1.293 0 2.344-1.313 2.344-2.93 0-1.614-1.051-2.968-2.344-2.968-.493 0-.936.211-1.31.545-.699-2.16-2.647-3.825-5.076-4.293.06.011.118.024.177.037-.169-.838-.121-2.147 2.069-1.992a3.097 3.097 0 0 0-.926-.198c-1.7-.074-2.276 1.574-2.406 2.024a7.464 7.464 0 0 0-.309-.006h-.07c-.345-.32-.673-.99 0-2.21zm-1.72 6.288c.476 0 .9.809.9 1.836 0 1.029-.424 1.875-.9 1.875-.474 0-.82-.846-.82-1.875 0-1.027.346-1.836.82-1.836zm3.75 0c.476 0 .9.809.9 1.836 0 1.029-.424 1.875-.9 1.875-.474 0-.82-.846-.82-1.875 0-1.027.346-1.836.82-1.836zm-6.874 7.783s.367 2.018 4.94 2.018c4.358 0 5.06-1.988 5.06-1.988s-.039 2.96-5.06 2.92c-5.117-.04-4.94-2.95-4.94-2.95zm11.392-7.404s-.008-.03 0 0z"/></svg>
